X: 39419
T: Tar Road To Sligo, The
R: jig
M: 6/8
K: Dmajor
|:fBB Bcd|ecA BAG|FGA ABc|dcd dfg|
fBB Bcd|ecA BAG|FGA Aag|fdc d3:|
|:Aff Aff|gfg efg|afd dcd|Bed cBA|
[1 Aff Aff|gfg efg|a2a bag|edc d3:|
[2 fed gfe|a2a bag|a2a bag|edc d3||

